X:1
T:The Hexamshire Lass
M:3/2
L:1/8
K:D
 d2 cd B2 GF E2- D2| d2 cd B2 Ad e2 E2| d2 cd BBA-F| E2F-A| B2A-c d2A-F E2- D2|\
 G2 BG F2A-F E2- DD| G2 BG F2 AB =c2- E2| G2 BG F2A-F E2F-A| B2A-c d2A-F|\
 E2- E||
